X: 10052
Q: "Lively"
M: 6/8
L: 1/8
K: G
|:\
|: d |\
dcB edc | dcB ABc |
d>cB e>fg | B3 d3 |\
(dc).B (gf).e | dcB {B}A2G |\


